_cdn/img/vt-mail.svg

<svg width="24" height="24" viewBox="0 0 24 24" fill="none" xmlns="http://www.w3.org/2000/svg">
<path d="M21.75 3H2.25C1.00734 3 0 4.00734 0 5.25V18.75C0 19.9927 1.00734 21 2.25 21H21.75C22.9927 21 24 19.9927 24 18.75V5.25C24 4.00734 22.9927 3 21.75 3ZM21.75 5.25V7.16273C20.699 8.01862 19.0234 9.3495 15.4412 12.1545C14.6518 12.7754 13.0881 14.2672 12 14.2498C10.9121 14.2674 9.34786 12.7752 8.55877 12.1545C4.97719 9.34992 3.30117 8.01877 2.25 7.16273V5.25H21.75ZM2.25 18.75V10.0499C3.32409 10.9054 4.8473 12.1059 7.16897 13.9239C8.19352 14.7304 9.98775 16.5108 12 16.5C14.0024 16.5108 15.7739 14.7563 16.8306 13.9243C19.1522 12.1064 20.6759 10.9055 21.75 10.05V18.75H2.25Z" fill="#00C5FF"/>
</svg>

<svg width="24" height="24" fill="none" xmlns="http://www.w3.org/2000/svg"><path d="M21.75 3H2.25A2.25 2.25 0 000 5.25v13.5A2.25 2.25 0 002.25 21h19.5A2.25 2.25 0 0024 18.75V5.25A2.25 2.25 0 0021.75 3zm0 2.25v1.913c-1.051.856-2.727 2.187-6.309 4.992-.79.62-2.353 2.112-3.441 2.095-1.088.017-2.652-1.475-3.441-2.095C4.977 9.35 3.3 8.018 2.25 7.163V5.25h19.5zm-19.5 13.5v-8.7c1.074.855 2.597 2.056 4.919 3.874C8.194 14.73 9.988 16.51 12 16.5c2.002.01 3.774-1.744 4.83-2.576a799.218 799.218 0 004.92-3.874v8.7H2.25z" fill="#00C5FF"/></svg>
